dist/icons/svgs/ballot-solid.svg

<svg xmlns="http://www.w3.org/2000/svg" width="24" height="24" fill="currentcolor" class="icon-ballot-solid" viewBox="0 0 24 24">
  <path d="M5.75 2H18.25C19.6172 2 20.75 3.13281 20.75 4.5V19.5C20.75 20.9062 19.6172 22 18.25 22H5.75C4.34375 22 3.25 20.9062 3.25 19.5V4.5C3.25 3.13281 4.34375 2 5.75 2ZM5.75 6.375V7.625C5.75 7.97656 6.02344 8.25 6.375 8.25H7.625C7.9375 8.25 8.25 7.97656 8.25 7.625V6.375C8.25 6.0625 7.9375 5.75 7.625 5.75H6.375C6.02344 5.75 5.75 6.0625 5.75 6.375ZM5.75 11.375V12.625C5.75 12.9766 6.02344 13.25 6.375 13.25H7.625C7.9375 13.25 8.25 12.9766 8.25 12.625V11.375C8.25 11.0625 7.9375 10.75 7.625 10.75H6.375C6.02344 10.75 5.75 11.0625 5.75 11.375ZM6.375 15.75C6.02344 15.75 5.75 16.0625 5.75 16.375V17.625C5.75 17.9766 6.02344 18.25 6.375 18.25H7.625C7.9375 18.25 8.25 17.9766 8.25 17.625V16.375C8.25 16.0625 7.9375 15.75 7.625 15.75H6.375ZM10.75 17C10.75 17.3516 11.0234 17.625 11.375 17.625H17.625C17.9375 17.625 18.25 17.3516 18.25 17C18.25 16.6875 17.9375 16.375 17.625 16.375H11.375C11.0234 16.375 10.75 16.6875 10.75 17ZM11.375 6.375C11.0234 6.375 10.75 6.6875 10.75 7C10.75 7.35156 11.0234 7.625 11.375 7.625H17.625C17.9375 7.625 18.25 7.35156 18.25 7C18.25 6.6875 17.9375 6.375 17.625 6.375H11.375ZM10.75 12C10.75 12.3516 11.0234 12.625 11.375 12.625H17.625C17.9375 12.625 18.25 12.3516 18.25 12C18.25 11.6875 17.9375 11.375 17.625 11.375H11.375C11.0234 11.375 10.75 11.6875 10.75 12Z"/>
</svg>

<svg xmlns="http://www.w3.org/2000/svg" width="24" height="24" fill="currentColor" class="icon-ballot-solid" viewBox="0 0 24 24">
  <path d="M5.75 2h12.5c1.367 0 2.5 1.133 2.5 2.5v15c0 1.406-1.133 2.5-2.5 2.5H5.75a2.47 2.47 0 0 1-2.5-2.5v-15c0-1.367 1.094-2.5 2.5-2.5m0 4.375v1.25c0 .352.273.625.625.625h1.25a.64.64 0 0 0 .625-.625v-1.25c0-.312-.312-.625-.625-.625h-1.25a.64.64 0 0 0-.625.625m0 5v1.25c0 .352.273.625.625.625h1.25a.64.64 0 0 0 .625-.625v-1.25c0-.312-.312-.625-.625-.625h-1.25a.64.64 0 0 0-.625.625m.625 4.375a.64.64 0 0 0-.625.625v1.25c0 .352.273.625.625.625h1.25a.64.64 0 0 0 .625-.625v-1.25c0-.312-.312-.625-.625-.625zM10.75 17c0 .352.273.625.625.625h6.25A.64.64 0 0 0 18.25 17c0-.312-.312-.625-.625-.625h-6.25a.64.64 0 0 0-.625.625m.625-10.625A.64.64 0 0 0 10.75 7c0 .352.273.625.625.625h6.25A.64.64 0 0 0 18.25 7c0-.312-.312-.625-.625-.625zM10.75 12c0 .352.273.625.625.625h6.25A.64.64 0 0 0 18.25 12c0-.312-.312-.625-.625-.625h-6.25a.64.64 0 0 0-.625.625"/>
</svg>
